X: 925
T: My Darling Asleep.
B:O'Neill's 925
N:"collected by Beamish."
Z:Transcribed by Tom Keays (htkeays@mailbox.syr.edu)
Z:abc 1.6
M:6/8
R:Jig
L:1/8
K:D
(d/e/) | fdd cAA | BGG A2 G | FAA def | gfg eaa |
fdd cAA | BGG A2G | FAA def | gec d2 :|
|| (A/G/) | FAA Add | FAA BGG | FAA def | gfg eaa |
fdd cAA | BGG A2 G | FAA def | gec d2 :|


